src/images/bridges/kusama.svg

<svg width="36" height="36" viewBox="0 0 36 36" fill="none" xmlns="http://www.w3.org/2000/svg">
<circle cx="18" cy="18" r="18" fill="black"/>
<path d="M28.4803 10.855C28.0891 10.5442 27.6227 10.1197 26.7726 10.0136C25.9751 9.90749 25.1626 10.4457 24.6134 10.8019C24.0642 11.1582 23.026 12.2043 22.5972 12.5226C22.1684 12.841 21.07 13.1366 19.3021 14.2054C17.5341 15.2742 10.5978 19.7616 10.5978 19.7616L12.4034 19.7843L4.35359 23.961H5.15856L4 24.8478C4 24.8478 5.02315 25.1207 5.88079 24.5749V24.8251C5.88079 24.8251 15.4653 21.0199 17.316 22.0053L16.1875 22.3388C16.2853 22.3388 18.1059 22.4601 18.1059 22.4601C18.1501 22.84 18.2768 23.2053 18.4771 23.5302C18.6773 23.8552 18.9461 24.1316 19.2645 24.34C20.3628 25.0676 20.3854 25.4694 20.3854 25.4694C20.3854 25.4694 19.8137 25.7044 19.8137 26C19.8137 26 20.6563 25.7423 21.4387 25.765C21.9352 25.784 22.4277 25.8629 22.9057 26C22.9057 26 22.8455 25.6816 22.0856 25.4694C21.3258 25.2572 20.5735 24.4233 20.2049 23.9685C19.9791 23.679 19.8319 23.3353 19.7778 22.9712C19.7237 22.6071 19.7646 22.235 19.8964 21.8916C20.1597 21.2018 21.0775 20.8228 22.9734 19.8374C25.2078 18.6701 25.7193 17.8059 26.0353 17.1313C26.3513 16.4567 26.8177 15.115 27.081 14.4859C27.412 13.6748 27.8183 13.2427 28.1568 12.985C28.4954 12.7273 30 12.1588 30 12.1588C30 12.1588 28.849 11.1506 28.4803 10.855Z" fill="white"/>
</svg>

<svg xmlns="http://www.w3.org/2000/svg" width="36" height="36" fill="none"><circle cx="18" cy="18" r="18" fill="#000"/><path fill="#fff" d="M28.48 10.855c-.39-.31-.857-.735-1.707-.841-.798-.107-1.61.432-2.16.788-.549.356-1.587 1.402-2.016 1.72s-1.527.615-3.295 1.683c-1.768 1.07-8.704 5.557-8.704 5.557l1.805.022-8.05 4.177h.806L4 24.848s1.023.273 1.88-.273v.25s9.585-3.805 11.436-2.82l-1.128.334c.097 0 1.918.121 1.918.121a2.62 2.62 0 0 0 1.159 1.88c1.098.728 1.12 1.13 1.12 1.13s-.571.234-.571.53c0 0 .842-.258 1.625-.235.496.019.989.098 1.467.235 0 0-.06-.318-.82-.53s-1.512-1.047-1.881-1.501a2.13 2.13 0 0 1-.309-2.077c.264-.69 1.181-1.07 3.077-2.055 2.235-1.167 2.746-2.031 3.062-2.706s.783-2.016 1.046-2.645c.331-.811.737-1.243 1.076-1.501.338-.258 1.843-.826 1.843-.826s-1.151-1.008-1.52-1.304"/></svg>
